assets/img/braze_icons/file-shield-03.svg

<svg fill="none" height="24" viewBox="0 0 24 24" width="24" xmlns="http://www.w3.org/2000/svg"><g fill="#801ed7"><path d="m12.8595 17.2488c-.3054.2547-.6153.4613-.8595.6091-.2442-.1478-.5541-.3544-.8595-.6091-.697-.5814-1.1405-1.218-1.1405-1.8238v-1.7979l1.5236-.5447c.3076-.1102.6447-.1099.9523.0003l1.5241.5446v1.7977c0 .6058-.4435 1.2424-1.1405 1.8238z"/><path clip-rule="evenodd" d="m12.9989 1.95227c.0011.02386.0011.03701.0011.06331v4.41633c0 .25238-.0001.49817.017.70633.0186.2286.0627.49833.201.76975.1917.37633.4977.68229.874.87404.2714.13829.5412.18236.7698.20104.2081.017.4539.01697.7063.01694h4.4164c.0262 0 .0393 0 .0632.00114.4938.02357.9279.45784.9512.95167.0011.02382.0011.03159.0011.04712v7.24136c0 .805 0 1.4693-.0442 2.0105-.0459.5621-.1445 1.0788-.3918 1.5642-.3835.7526-.9954 1.3645-1.748 1.748-.4854.2473-1.0021.3459-1.5642.3918-.5412.0442-1.2055.0442-2.0105.0442h-6.48262c-.80496 0-1.46931 0-2.0105-.0442-.5621-.0459-1.0788-.1445-1.56414-.3918-.75265-.3835-1.36457-.9954-1.74806-1.748-.24729-.4854-.34586-1.0021-.39178-1.5642-.04422-.5412-.04421-1.2055-.0442-2.0105v-10.48263c-.00001-.80494-.00002-1.46931.0442-2.01049.04592-.5621.14449-1.0788.39178-1.56414.38349-.75265.99541-1.36457 1.74806-1.74806.48534-.24729 1.00204-.34586 1.56414-.39178.54117-.044218 1.20553-.044209 2.01044-.0442h3.24138c.0156-.000004.0234-.000007.0473.00112.4937.02336.928.45738.9516.95115zm2.3376 10.02873-2.1869-.7815c-.7432-.266-1.5572-.266-2.3004 0l-2.18585.7815c-.39783.1423-.66335.5192-.66335.9417v2.5023c0 1.539 1.05645 2.6898 1.85946 3.3596.42644.3557.84764.6313 1.15994.8173.1795.1069.3623.2082.5498.3003.2722.1297.5889.13.8611.0003.1866-.0947.3704-.1934.5503-.3006.3123-.186.7335-.4616 1.1599-.8173.803-.6698 1.8595-1.8206 1.8595-3.3596v-2.5023c0-.4226-.2656-.7995-.6635-.9417z" fill-rule="evenodd"/><path d="m19.4686 6.92627c-.1202.07373-.267.07373-.5606.07372l-3.108-.00004c-.28 0-.42 0-.527-.0545-.0941-.04794-.1706-.12443-.2185-.21851-.0545-.10695-.0545-.24696-.0545-.52698v-3.10792c0-.29362 0-.44043.0737-.5607.1042-.16984.3495-.27138.5432-.22482.1371.03297.2328.12872.4241.3202l3.3323 3.33232c.1915.19129.2872.28694.3202.4241.0465.1937-.055.43901-.2249.54313z"/></g></svg>

<svg width="24" height="24" viewBox="0 0 24 24" fill="none" xmlns="http://www.w3.org/2000/svg">
<path d="M12.8595 17.2488C12.5541 17.5035 12.2442 17.7101 12 17.8579C11.7558 17.7101 11.4459 17.5035 11.1405 17.2488C10.4435 16.6674 10 16.0308 10 15.425V13.6271L11.5236 13.0824C11.8312 12.9722 12.1683 12.9725 12.4759 13.0827L14 13.6273V15.425C14 16.0308 13.5565 16.6674 12.8595 17.2488Z" fill="#801ED7"/>
<path fill-rule="evenodd" clip-rule="evenodd" d="M12.9989 1.95227C13 1.97613 13 1.98928 13 2.01558L13 6.43191C13 6.68429 12.9999 6.93008 13.017 7.13824C13.0356 7.36684 13.0797 7.63657 13.218 7.90799C13.4097 8.28432 13.7157 8.59028 14.092 8.78203C14.3634 8.92032 14.6332 8.96439 14.8618 8.98307C15.0699 9.00007 15.3157 9.00004 15.5681 9.00001L19.9845 9.00001C20.0107 9.00001 20.0238 9.00001 20.0477 9.00115C20.5415 9.02472 20.9756 9.45899 20.9989 9.95282C21 9.97664 21 9.98441 21 9.99994V17.2413C21 18.0463 21 18.7106 20.9558 19.2518C20.9099 19.8139 20.8113 20.3306 20.564 20.816C20.1805 21.5686 19.5686 22.1805 18.816 22.564C18.3306 22.8113 17.8139 22.9099 17.2518 22.9558C16.7106 23 16.0463 23 15.2413 23H8.75868C7.95372 23 7.28937 23 6.74818 22.9558C6.18608 22.9099 5.66938 22.8113 5.18404 22.564C4.43139 22.1805 3.81947 21.5686 3.43598 20.816C3.18869 20.3306 3.09012 19.8139 3.0442 19.2518C2.99998 18.7106 2.99999 18.0463 3 17.2413V6.75867C2.99999 5.95373 2.99998 5.28936 3.0442 4.74818C3.09012 4.18608 3.18869 3.66938 3.43598 3.18404C3.81947 2.43139 4.43139 1.81947 5.18404 1.43598C5.66938 1.18869 6.18608 1.09012 6.74818 1.0442C7.28935 0.999982 7.95371 0.999991 8.75862 1H12C12.0156 0.999996 12.0234 0.999993 12.0473 1.00112C12.541 1.02448 12.9753 1.4585 12.9989 1.95227ZM15.3365 11.981L13.1496 11.1995C12.4064 10.9335 11.5924 10.9335 10.8492 11.1995L8.66335 11.981C8.26552 12.1233 8 12.5002 8 12.9227V15.425C8 16.964 9.05645 18.1148 9.85946 18.7846C10.2859 19.1403 10.7071 19.4159 11.0194 19.6019C11.1989 19.7088 11.3817 19.8101 11.5692 19.9022C11.8414 20.0319 12.1581 20.0322 12.4303 19.9025C12.6169 19.8078 12.8007 19.7091 12.9806 19.6019C13.2929 19.4159 13.7141 19.1403 14.1405 18.7846C14.9435 18.1148 16 16.964 16 15.425V12.9227C16 12.5001 15.7344 12.1232 15.3365 11.981Z" fill="#801ED7"/>
<path d="M19.4686 6.92627C19.3484 7 19.2016 7 18.908 6.99999L15.8 6.99995C15.52 6.99995 15.38 6.99995 15.273 6.94545C15.1789 6.89751 15.1024 6.82102 15.0545 6.72694C15 6.61999 15 6.47998 15 6.19996L15 3.09204C15 2.79842 15 2.65161 15.0737 2.53134C15.1779 2.3615 15.4232 2.25996 15.6169 2.30652C15.754 2.33949 15.8497 2.43524 16.041 2.62672L19.3733 5.95904C19.5648 6.15033 19.6605 6.24598 19.6935 6.38314C19.74 6.57684 19.6385 6.82215 19.4686 6.92627Z" fill="#801ED7"/>
</svg>
